Yaru++/status/16/media-playlist-repeat-one.svg

<svg height="16" width="16" xmlns="http://www.w3.org/2000/svg">
  <g fill="#808080">
    <path d="m3.994 2c-1.258.015-2.179-.03-2.931.385a1.88 1.88 0 0 0 -.838.998c-.165.437-.225.96-.225 1.617v6c0 .658.06 1.179.225 1.617.164.439.461.79.838.998.752.416 1.673.37 2.931.385h8.012c1.258-.015 2.179.03 2.932-.385a1.88 1.88 0 0 0 .838-.998c.164-.438.224-.96.224-1.617v-6c0-.658-.06-1.179-.225-1.617a1.88 1.88 0 0 0 -.838-.998c-.752-.416-1.673-.37-2.931-.385h-1.006v1h1c1.259.015 2.087.06 2.453.262.184.1.29.212.387.472s.16.674.16 1.266v6c0 .592-.063 1.006-.16 1.266-.098.26-.203.371-.387.472-.366.202-1.194.247-2.453.262h-8c-1.259-.015-2.09-.06-2.455-.262-.183-.1-.287-.212-.385-.472-.097-.26-.16-.674-.16-1.266v-6c0-.592.063-1.006.16-1.266.098-.26.202-.371.385-.472.365-.202 1.195-.247 2.455-.262h2.5v-1h-2.502z"/>
    <path d="m5 0 .001 5c.76-.348 1.535-.737 2.323-1.166a44.09 44.09 0 0 0 2.259-1.334c-.725-.449-1.478-.889-2.26-1.32a43.088 43.088 0 0 0 -2.323-1.18z"/>
    <path d="m6.117 6.247c.167-.07.34-.147.52-.234.184-.092.363-.19.536-.294a8.2 8.2 0 0 0 .494-.338c.161-.121.306-.248.433-.381h.9v6h-1v-4.652c-.448.347-1.012.566-1.494.762z"/>
  </g>
</svg>

<svg height="16" width="16" xmlns="http://www.w3.org/2000/svg">
    <g fill="gray">
        <path d="M3.994 2c-1.258.015-2.179-.03-2.931.385a1.88 1.88 0 0 0-.838.998C.06 3.82 0 4.343 0 5v6c0 .658.06 1.179.225 1.617.164.439.461.79.838.998.752.416 1.673.37 2.931.385H12.006c1.258-.015 2.179.03 2.932-.385a1.88 1.88 0 0 0 .838-.998c.164-.438.224-.96.224-1.617V5c0-.658-.06-1.179-.225-1.617a1.88 1.88 0 0 0-.838-.998c-.752-.416-1.673-.37-2.931-.385H11v1h1c1.259.015 2.087.06 2.453.262.184.1.29.212.387.472.097.26.16.674.16 1.266v6c0 .592-.063 1.006-.16 1.266-.098.26-.203.371-.387.472-.366.202-1.194.247-2.453.262H4c-1.259-.015-2.09-.06-2.455-.262-.183-.1-.287-.212-.385-.472C1.063 12.006 1 11.592 1 11V5c0-.592.063-1.006.16-1.266.098-.26.202-.371.385-.472C1.91 3.06 2.74 3.015 4 3h2.5V2H3.998z" style="line-height:normal;font-variant-ligatures:normal;font-variant-position:normal;font-variant-caps:normal;font-variant-numeric:normal;font-variant-alternates:normal;font-feature-settings:normal;text-indent:0;text-align:start;text-decoration-line:none;text-decoration-style:solid;text-decoration-color:#000;text-transform:none;text-orientation:mixed;shape-padding:0;isolation:auto;mix-blend-mode:normal;marker:none" color="#000" font-weight="400" font-family="sans-serif" white-space="normal" overflow="visible"/>
        <path d="M5 0l.001 5c.76-.348 1.535-.737 2.323-1.166A44.09 44.09 0 0 0 9.583 2.5c-.725-.449-1.478-.889-2.26-1.32A43.088 43.088 0 0 0 5 0z" style="marker:none" color="#000" overflow="visible"/>
        <path d="M6.117 6.247c.167-.07.34-.147.52-.234.184-.092.363-.19.536-.294a8.2 8.2 0 0 0 .494-.338c.161-.121.306-.248.433-.381H9v6H8V6.348c-.448.347-1.012.566-1.494.762z" style="line-height:1000%;-inkscape-font-specification:Ubuntu;text-align:center" font-weight="700" font-family="Ubuntu" letter-spacing="0" word-spacing="0" text-anchor="middle"/>
    </g>
</svg>
